bootstrap/shuffle.svg

<svg xmlns="http://www.w3.org/2000/svg" width="16" height="16" fill="currentColor" class="bi bi-shuffle" viewBox="0 0 16 16">
  <path fill-rule="evenodd" d="M0 3.5A.5.5 0 0 1 .5 3H1c2.202 0 3.827 1.24 4.874 2.418.49.552.865 1.102 1.126 1.532.26-.43.636-.98 1.126-1.532C9.173 4.24 10.798 3 13 3v1c-1.798 0-3.173 1.01-4.126 2.082A9.6 9.6 0 0 0 7.556 8a9.6 9.6 0 0 0 1.317 1.918C9.828 10.99 11.204 12 13 12v1c-2.202 0-3.827-1.24-4.874-2.418A10.6 10.6 0 0 1 7 9.05c-.26.43-.636.98-1.126 1.532C4.827 11.76 3.202 13 1 13H.5a.5.5 0 0 1 0-1H1c1.798 0 3.173-1.01 4.126-2.082A9.6 9.6 0 0 0 6.444 8a9.6 9.6 0 0 0-1.317-1.918C4.172 5.01 2.796 4 1 4H.5a.5.5 0 0 1-.5-.5"/>
  <path d="M13 5.466V1.534a.25.25 0 0 1 .41-.192l2.36 1.966c.12.1.12.284 0 .384l-2.36 1.966a.25.25 0 0 1-.41-.192m0 9v-3.932a.25.25 0 0 1 .41-.192l2.36 1.966c.12.1.12.284 0 .384l-2.36 1.966a.25.25 0 0 1-.41-.192"/>
</svg>

<svg viewBox="0 0 16 16" xmlns="http://www.w3.org/2000/svg"><path fill-rule="evenodd" d="M0 3.5v0c0-.28.22-.5.5-.5H1c2.202 0 3.827 1.24 4.874 2.41 .49.55.86 1.1 1.12 1.532 .26-.43.63-.98 1.12-1.532 1.04-1.18 2.67-2.42 4.87-2.42v1C11.18 3.99 9.81 5 8.85 6.072l-.001-.001c-.52.58-.96 1.22-1.32 1.91L7.53 7.98c.35.69.8 1.33 1.31 1.91 .95 1.07 2.33 2.08 4.12 2.08v1c-2.202 0-3.827-1.24-4.88-2.42h0c-.43-.48-.8-.99-1.13-1.532 -.26.43-.64.98-1.13 1.532 -1.05 1.17-2.68 2.41-4.88 2.41h-.5v0c-.28 0-.5-.23-.5-.5 0-.28.22-.5.5-.5h.5c1.798 0 3.173-1.01 4.12-2.09v0c.51-.59.95-1.23 1.31-1.92v0c-.36-.7-.81-1.34-1.32-1.92C4.09 4.95 2.71 3.94.92 3.94h-.5v0c-.28 0-.5-.23-.5-.5Z"/><path d="M13 5.466V1.53v0c0-.14.11-.25.25-.25 .05 0 .11.02.15.05L15.76 3.3c.12.1.12.28 0 .38L13.4 5.64v-.001c-.11.08-.27.07-.36-.04 -.04-.05-.06-.11-.06-.16Zm0 9v-3.94 0c0-.14.11-.25.25-.25 .05 0 .11.02.15.05l2.36 1.96c.12.1.12.28 0 .38l-2.36 1.96v0c-.11.08-.27.07-.36-.04 -.04-.05-.06-.11-.06-.16Z"/></svg>
